azure-patterns/svg-clock-grey.svg

<svg xmlns="http://www.w3.org/2000/svg" viewBox="0 0 30 30">
                                
                            
    <rect width="29.7858" height="29.7039" fill="black" fill-opacity="0"></rect>
    <path d="M14.8929 7.42596V15.3886L20.2014 20.697L18.8924 22.0023L13.0313 16.1718V7.42596H14.8929ZM22.3393 9.28246H26.6588C26.1159 8.15116 25.4347 7.12864 24.6154 6.21489C23.7961 5.30115 22.875 4.52036 21.8521 3.87253C20.8292 3.22469 19.7263 2.72672 18.5434 2.37863C17.3605 2.03054 16.1436 1.85649 14.8929 1.85649C13.7003 1.85649 12.5489 2.0112 11.4387 2.32061C10.3285 2.63003 9.29108 3.06756 8.32634 3.63321C7.3616 4.19886 6.4817 4.87812 5.68664 5.671C4.89157 6.46388 4.21044 7.34136 3.64323 8.30345C3.07602 9.26553 2.63728 10.3001 2.32701 11.4073C2.01674 12.5144 1.86161 13.6626 1.86161 14.8519C1.86161 16.0412 2.01674 17.1895 2.32701 18.2966C2.63728 19.4037 3.07602 20.4383 3.64323 21.4004C4.21044 22.3625 4.89157 23.24 5.68664 24.0329C6.4817 24.8257 7.3616 25.505 8.32634 26.0706C9.29108 26.6363 10.3261 27.0738 11.4314 27.3832C12.5368 27.6927 13.6906 27.8474 14.8929 27.8474C16.3473 27.8474 17.7483 27.6129 19.096 27.1439C20.4438 26.675 21.6703 26.0199 22.7756 25.1787C23.881 24.3374 24.8384 23.3343 25.648 22.1691C26.4576 21.004 27.0564 19.7204 27.4442 18.3183L29.2331 18.8115C28.7968 20.4166 28.1156 21.8863 27.1897 23.2206C26.2637 24.555 25.1681 25.7032 23.9028 26.6653C22.6375 27.6274 21.2364 28.3743 19.6996 28.9061C18.1628 29.438 16.5606 29.7039 14.8929 29.7039C13.5258 29.7039 12.2071 29.5274 10.937 29.1745C9.6668 28.8215 8.47905 28.3236 7.37372 27.6806C6.26839 27.0376 5.26244 26.264 4.35588 25.36C3.44931 24.4559 2.67364 23.4527 2.02886 22.3504C1.38409 21.2481 0.884749 20.0661 0.53085 18.8042C0.17695 17.5424 0 16.225 0 14.8519C0 13.4886 0.17695 12.1736 0.53085 10.9069C0.884749 9.64022 1.38409 8.45574 2.02886 7.35345C2.67364 6.25115 3.44931 5.24797 4.35588 4.3439C5.26244 3.43983 6.26839 2.66629 7.37372 2.02329C8.47905 1.38028 9.66437 0.882316 10.9297 0.529391C12.195 0.176463 13.5161 4.88416e-07 14.8929 4.88416e-07C16.2503 4.88416e-07 17.5689 0.178883 18.8488 0.536644C20.1287 0.894405 21.3334 1.40445 22.4629 2.0668C23.5925 2.72914 24.6203 3.5341 25.5462 4.48169C26.4722 5.42927 27.2648 6.49772 27.9241 7.68703V3.71298H29.7858V11.1389H22.3393V9.28246Z" fill="#505055"></path>
</svg>

<svg xmlns="http://www.w3.org/2000/svg" viewBox="0 0 30 30"><path fill="none" d="M0 0h29.786v29.704H0z"/><path d="M14.893 7.426v7.963l5.308 5.308-1.309 1.305-5.86-5.83V7.426h1.86zm7.446 1.856h4.32a12.98 12.98 0 0 0-2.044-3.067 13.02 13.02 0 0 0-9.723-4.358c-1.192 0-2.343.154-3.453.464a13.051 13.051 0 0 0-5.752 3.35 12.976 12.976 0 0 0-3.36 5.736 12.704 12.704 0 0 0-.465 3.445c0 1.19.155 2.337.465 3.445a12.978 12.978 0 0 0 3.36 5.736 13.08 13.08 0 0 0 5.745 3.35c1.105.31 2.259.464 3.46.464 1.455 0 2.856-.234 4.204-.703a13.187 13.187 0 0 0 3.68-1.965 13.266 13.266 0 0 0 2.872-3.01 12.565 12.565 0 0 0 1.796-3.85l1.79.492a14.21 14.21 0 0 1-2.044 4.41 15.132 15.132 0 0 1-3.287 3.444 14.998 14.998 0 0 1-4.203 2.241 14.592 14.592 0 0 1-4.807.798c-1.367 0-2.686-.177-3.956-.53a15.086 15.086 0 0 1-3.563-1.493 14.787 14.787 0 0 1-3.018-2.321 14.754 14.754 0 0 1-2.327-3.01A15.028 15.028 0 0 1 .53 18.804 14.567 14.567 0 0 1 0 14.852c0-1.363.177-2.678.53-3.945A14.997 14.997 0 0 1 2.03 7.353a14.753 14.753 0 0 1 2.327-3.01 14.784 14.784 0 0 1 3.018-2.32A15.115 15.115 0 0 1 10.93.53 14.683 14.683 0 0 1 14.893 0c1.357 0 2.676.179 3.956.537 1.28.357 2.484.867 3.614 1.53a14.666 14.666 0 0 1 3.083 2.415 14.889 14.889 0 0 1 2.378 3.205V3.713h1.862v7.426h-7.447V9.282z" fill="#505055"/></svg>
